icon/gr/assist-listening.svg

<svg xmlns="http://www.w3.org/2000/svg" viewBox="0 0 24 24" height="1em" width="1em">
  <path fill="none" stroke="#000" stroke-linecap="round" stroke-linejoin="round" stroke-width="2" d="M11,21 C11.7572165,21.6666667 12.4238831,22 13,22 C15,22 16,21 16,19 C16,17.6666667 16.6666667,16.3333333 18,15 C19.2667508,13.7332492 20,11.9329966 20,10 C20,6.13400675 16.8659932,3 13,3 C9.13400675,3 6,6.13400675 6,10 M17,10 C17,7.790861 15.209139,6 13,6 C10.790861,6 9,7.790861 9,10 M3,20 L8,14 L9,18 L14,12"/>
</svg>

<svg xmlns="http://www.w3.org/2000/svg" width="24" height="24"><path fill="none" stroke="#000" stroke-linecap="round" stroke-linejoin="round" stroke-width="2" d="M11 21c.757.667 1.424 1 2 1 2 0 3-1 3-3 0-1.333.667-2.667 2-4 1.267-1.267 2-3.067 2-5a7 7 0 0 0-14 0m11 0a4 4 0 1 0-8 0M3 20l5-6 1 4 5-6"/></svg>
